src/lib/packages/icons/src/assets/line/message-settings.svg

<svg width="24" height="24" viewBox="0 0 24 24" fill="none" xmlns="http://www.w3.org/2000/svg">
<path d="M18 2.25H6C3.582 2.25 2.25 3.582 2.25 6V21C2.25 21.303 2.43289 21.577 2.71289 21.693C2.80589 21.732 2.903 21.75 3 21.75C3.195 21.75 3.38703 21.674 3.53003 21.53L6.31006 18.75H18C20.418 18.75 21.75 17.418 21.75 15V6C21.75 3.582 20.418 2.25 18 2.25ZM20.25 15C20.25 16.577 19.577 17.25 18 17.25H6C5.801 17.25 5.60997 17.329 5.46997 17.47L3.75 19.1899V6C3.75 4.423 4.423 3.75 6 3.75H18C19.577 3.75 20.25 4.423 20.25 6V15ZM15.729 7.34705C15.521 6.99805 15.075 6.87805 14.718 7.07605L14.585 7.15002C14.388 7.26102 14.1399 7.26202 13.9419 7.15002C13.7539 7.04502 13.6379 6.85302 13.6379 6.65002C13.6379 6.15402 13.2329 5.75098 12.7339 5.75098H11.21C10.711 5.75098 10.3059 6.15402 10.3059 6.65002C10.3059 6.85302 10.1899 7.04502 10.0029 7.15002C9.80393 7.26102 9.55689 7.26202 9.35889 7.15002C8.93289 6.91302 8.38889 7.058 8.13989 7.474L7.37598 8.75598C7.25298 8.96198 7.21805 9.21295 7.27905 9.44495C7.34005 9.67695 7.49701 9.87797 7.70801 9.99597C7.89601 10.101 8.01294 10.293 8.01294 10.498C8.01394 10.703 7.89801 10.895 7.70801 11.002C7.49801 11.12 7.34205 11.321 7.27905 11.554C7.21705 11.786 7.253 12.0359 7.375 12.2419L8.14111 13.526C8.39311 13.948 8.92611 14.091 9.36011 13.849C9.55711 13.738 9.80293 13.738 10.0029 13.85C10.1899 13.955 10.3049 14.146 10.3049 14.35C10.3049 14.846 10.71 15.249 11.208 15.249H12.7351C13.2331 15.249 13.6379 14.846 13.6379 14.35C13.6379 14.146 13.7539 13.955 13.9409 13.85C14.1399 13.738 14.387 13.738 14.585 13.85C15.011 14.087 15.555 13.942 15.804 13.526L16.573 12.236C16.695 12.028 16.727 11.785 16.665 11.552C16.602 11.319 16.4511 11.1241 16.2361 11.0031C16.0481 10.8981 15.9319 10.706 15.9319 10.501C15.9319 10.296 16.0479 10.103 16.2339 9.99902L16.3669 9.92505C16.5439 9.82605 16.6731 9.65997 16.7251 9.46497C16.7781 9.26897 16.748 9.06096 16.645 8.88696L15.729 7.34705ZM15.009 11.929L14.772 12.327C14.247 12.201 13.6831 12.273 13.2061 12.543C12.7301 12.811 12.385 13.247 12.23 13.75H11.7151C11.5611 13.248 11.216 12.812 10.739 12.543C10.261 12.273 9.6981 12.2 9.1731 12.327L8.93604 11.929C9.30404 11.546 9.51592 11.033 9.51392 10.494C9.51292 9.96002 9.30103 9.45204 8.93604 9.07104L9.1731 8.67297C9.6971 8.79797 10.261 8.72603 10.74 8.45703C11.215 8.18803 11.5601 7.752 11.7151 7.25H12.23C12.384 7.752 12.7301 8.18803 13.2061 8.45703C13.6851 8.72703 14.249 8.79797 14.772 8.67297L15.009 9.07104C14.643 9.45404 14.4309 9.96495 14.4319 10.502C14.4319 11.038 14.644 11.548 15.009 11.929ZM13.02 10.5C13.02 11.052 12.573 11.5 12.02 11.5C11.468 11.5 11.0149 11.052 11.0149 10.5C11.0149 9.948 11.458 9.5 12.01 9.5H12.02C12.572 9.5 13.02 9.948 13.02 10.5Z" fill="currentColor"/>
</svg>

<svg xmlns="http://www.w3.org/2000/svg" width="24" height="24" fill="none"><path fill="currentColor" d="M18 2.25H6C3.582 2.25 2.25 3.582 2.25 6v15a.75.75 0 0 0 1.28.53l2.78-2.78H18c2.418 0 3.75-1.332 3.75-3.75V6c0-2.418-1.332-3.75-3.75-3.75ZM20.25 15c0 1.577-.673 2.25-2.25 2.25H6a.747.747 0 0 0-.53.22l-1.72 1.72V6c0-1.577.673-2.25 2.25-2.25h12c1.577 0 2.25.673 2.25 2.25v9Zm-4.521-7.653a.75.75 0 0 0-1.011-.271l-.133.074a.66.66 0 0 1-.643 0 .579.579 0 0 1-.304-.5.902.902 0 0 0-.904-.899H11.21a.902.902 0 0 0-.904.899.58.58 0 0 1-.303.5.662.662 0 0 1-.644 0 .91.91 0 0 0-1.22.324l-.763 1.282a.903.903 0 0 0-.097.689.898.898 0 0 0 .429.551.58.58 0 0 1 .305.502.58.58 0 0 1-.305.504.908.908 0 0 0-.429.552.9.9 0 0 0 .096.688l.766 1.284a.899.899 0 0 0 1.22.323.66.66 0 0 1 .642.001.578.578 0 0 1 .302.5c0 .496.405.899.903.899h1.527a.902.902 0 0 0 .903-.899c0-.204.116-.395.303-.5a.66.66 0 0 1 .644 0 .91.91 0 0 0 1.219-.324l.769-1.29a.89.89 0 0 0-.337-1.233.58.58 0 0 1-.304-.502.58.58 0 0 1 .302-.502l.133-.074a.749.749 0 0 0 .278-1.038l-.916-1.54Zm-.72 4.582-.237.398a2.163 2.163 0 0 0-1.566.216 2.096 2.096 0 0 0-.976 1.207h-.515a2.094 2.094 0 0 0-.976-1.207 2.159 2.159 0 0 0-1.566-.216l-.237-.398c.368-.383.58-.896.578-1.435a2.066 2.066 0 0 0-.578-1.423l.237-.398a2.178 2.178 0 0 0 1.567-.216c.475-.269.82-.705.975-1.207h.515c.154.502.5.938.976 1.207a2.17 2.17 0 0 0 1.566.216l.237.398a2.069 2.069 0 0 0-.577 1.431c0 .536.212 1.046.577 1.427ZM13.02 10.5a1 1 0 0 1-1 1 1.005 1.005 0 0 1-1.005-1c0-.552.443-1 .995-1h.01a1 1 0 0 1 1 1Z"/></svg>
